!!!COM: Morales, Crist&oacute;bal de
!!!CDT: ~1500///-1553///
!!!CNT@ENG: Spanish
**kern	**kern	**kern	**kern
*staff4	*staff3	*staff2	*staff1
*clefG2	*clefG2	*clefG2	*clefG2
*k[b-]	*k[b-]	*k[b-]	*k[b-]
*M2/2	*M2/2	*M2/2	*M2/2
*MM240	*MM240	*MM240	*MM240
*met(c|)	*met(c|)	*met(c|)	*met(c|)
=1-	=1-	=1-	=1-
1dd	1f	1a	1dd
=2	=2	=2	=2
1g	1g	1b-	2.dd\
.	.	.	4dd\
=3	=3	=3	=3
2.dd\	2f/	2.a/	2dd\
.	4f/	.	2ee\
4dd\	4r	4a/	.
=4	=4	=4	=4
2dd\	2f/	2a/	2.gg\
2cc\	2g/	2cc\	.
.	.	.	4gg\
=5	=5	=5	=5
2cc\	2.cc\	2ee\	4gg\
.	.	.	4ee\
4cc\	.	4ee\	4dd\
4r	4cc\	4r	[4dd\
=6	=6	=6	=6
4g/	4b-/	4dd\	4dd\]
2cc\	4g/	4cc\	4cc\
.	4a/	4cc\	2ddn\
4b-/	[4b-/	4dd\	.
=7	=7	=7	=7
2ee\	8b-/L]	2g/	2dd\
.	8a/J	.	.
.	2g/	.	.
2dd\	.	2a/	4r
.	4f/	.	4dd\
=8	=8	=8	=8
1g	2g/	4r	2gg\
.	.	4b-/	.
.	2b-/	2dd\	2ff\
=9	=9	=9	=9
4r	2dd\	4b-/	4dd\
4b-/	.	4g/	2ee\
2dd\	2dd\	4a/	.
.	.	4b-/	4dd\
=10	=10	=10	=10
4b-/	4r	4g/	4cc\
4g/	4b-/	4g/	4a/
4a/	4cc\	2r	2b-/
4b-/	4dd\	.	.
=11	=11	=11	=11
2cc\	4ee\	4r	2a/
.	4cc\	4ee\	.
4b-/	[2dd\	2gg\	4r
4g/	.	.	[4b-/
=12	=12	=12	=12
2dd\	2dd\]	4ff\	4b-/]
.	.	4dd\	2dd\
4r	2g/	2ee\	.
4ee\	.	.	4b-/
=13	=13	=13	=13
2gg\	4r	2dd\	2g/
.	4b-/	.	.
4ff\	2dd\	4r	2a/
4dd\	.	4ff\	.
=14	=14	=14	=14
4.ee\	4b-/	4gg\	2a/
.	4g/	4ee\	.
8dd\	.	.	.
4cc\	4a/	4ff\	4f/
4dd\	4f/	[4dd\	4g/
=15	=15	=15	=15
2a/	2e/	4dd\]	2a/
.	.	4cc\	.
4b-/	4d/	2ddn\	2b-/
4g/	[4g/	.	.
=16	=16	=16	=16
2dd\	4g/]	4r	1r
.	4f/	2dd\	.
2g/	4g/	.	.
.	4g/	4b-/	.
=17	=17	=17	=17
4r	4a/	4cc\	2r
2gg\	2b-/	4dd\	.
.	.	2ee\	4r
4ee\	4g/	.	[4dd\
=18	=18	=18	=18
4ff\	4a/	4dd\	4dd\]
4gg\	4b-/	2gg\	4b-/
2dd\	2a/	.	4cc\
.	.	4ff\	4dd\
=19	=19	=19	=19
4gg\	4r	8gg\L	2ee\
.	.	8ff\	.
4dd\	4.g/	8ee\	.
.	.	8dd\J	.
4ee\	.	4cc\	4dd\
.	8a/	.	.
4ff\	4b-/	[4b-/	4gg\
=20	=20	=20	=20
2cc\	4.e/	4b-/]	4gg\
.	.	4a/	4ff\
.	8f/	.	.
2b-/	8g/L	4b-/	4ee\
.	8f/	.	.
.	8g/	4b-/	4dd\
.	8a/J	.	.
=21	=21	=21	=21
4r	8b-/L	4b-/	2cc\
.	8cc/J	.	.
4b-/	4dd\	4b-/	.
4cc\	4cc\	4g/	2b-/
4g/	[4b-/	4g/	.
=22	=22	=22	=22
4a/	4b-/]	1e	4r
4a/	4a/	.	4b-/
4e/	4b-/	.	4b-/
4ee\	4g/	.	[4a/
=23	=23	=23	=23
4ee\	4g/	1r	4a/]
2dd\	2f/	.	4g/
.	.	.	4f/
4cc\	[4e/	.	4e/
=24	=24	=24	=24
2b-/	4e/]	1r	2a/
.	4d/	.	.
2a/	8a/L	.	2g/
.	8g/	.	.
.	8a/	.	.
.	8b-/J	.	.
=25	=25	=25	=25
8a/L	2cc\	4r	1r
8b-/	.	.	.
8cc/	.	4ee\	.
8dd/J	.	.	.
8ee\L	2b-/	4ee\	.
8ff\J	.	.	.
4gg\	.	4dd\	.
=26	=26	=26	=26
4cc\	4a/	4cc\	2.b-/
2ee\	4g/	4b-/	.
.	2f/	2a/	.
4dd\	.	.	4b-/
=27	=27	=27	=27
2ee\	2e/	2g/	2b-/
[2b-/	[2f/	4r	4.b-/
.	.	[4dd\	.
.	.	.	8b-/
=28	=28	=28	=28
4b-/]	4f/]	4dd\]	4a/
4b-/	4f/	4dd\	4a/
2b-/	2f/	4.dd\	4dd\
.	.	.	4dd\
.	.	8dd\	.
=29	=29	=29	=29
2.dd\	4r	4dd\	2b-/
.	2a/	4dd\	.
.	.	2ff\	4g/
4dd\	4a/	.	[4dd\
=30	=30	=30	=30
4dd\	4dd\	4dd\	4dd\]
4b-/	4dd\	2gg\	4cc\
4cc\	4cc\	.	4.b-/
4dd\	4a/	4ff\	.
.	.	.	8a/
=31	=31	=31	=31
2a/	2a/	2ee\	2g/
!	!	!	!gg is tied
2dd\	2f/	4r	2gg\
.	.	[4dd\	.
=32	=32	=32	=32
2gg\	2e/	4dd\]	1r
.	.	4cc\	.
2ff\	2r	4b-/	.
.	.	4a/	.
*-	*-	*-	*-
!!!END: 2011/08/24/
!!muse2ps: z18jv90,90,90,120s^[(.)(.)(.)(.)]^
!!!ONB: not proofread; clefs are probably wrong
